images/icons/tv.svg

<svg width="79" height="80" viewBox="0 0 79 80" fill="none" xmlns="http://www.w3.org/2000/svg">
<g id="screen-ratio_8291158 1">
<path id="Vector" d="M66.9846 14.7986H12.0154C8.98502 14.7986 6.51874 17.2649 6.51874 20.2953V59.873C6.51874 62.9034 8.98502 65.3697 12.0154 65.3697H66.9834C70.0138 65.3697 72.48 62.9034 72.48 59.873V20.2953C72.4813 17.2636 70.015 14.7986 66.9846 14.7986ZM68.0832 59.8718C68.0832 60.4779 67.5907 60.9716 66.9834 60.9716H12.0154C11.4093 60.9716 10.9156 60.4779 10.9156 59.8718V20.2953C10.9156 19.6892 11.4081 19.1954 12.0154 19.1954H66.9834C67.5894 19.1954 68.0832 19.6892 68.0832 20.2953V59.8718Z" fill="black"/>
<path id="Vector_2" d="M62.5865 22.4763H55.0889C53.8743 22.4763 52.8905 23.4613 52.8905 24.6747C52.8905 25.8881 53.8756 26.8732 55.0889 26.8732H57.2787L53.5336 30.6183C52.6745 31.4761 52.6745 32.8685 53.5336 33.7276C53.9632 34.1572 54.5261 34.372 55.0877 34.372C55.6493 34.372 56.2122 34.1572 56.6418 33.7276L60.3869 29.9826V32.1723C60.3869 33.387 61.3719 34.3708 62.5853 34.3708C63.7987 34.3708 64.7837 33.3857 64.7837 32.1723V24.6747C64.785 23.4601 63.8012 22.4763 62.5865 22.4763Z" fill="black"/>
<path id="Vector_3" d="M25.4664 46.4047C24.6073 45.5456 23.2161 45.5456 22.357 46.4047L18.6119 50.1498V47.9588C18.6119 46.7442 17.6269 45.7604 16.4135 45.7604C15.2001 45.7604 14.2151 46.7454 14.2151 47.9588V55.4564C14.2151 56.671 15.2001 57.6548 16.4135 57.6548H23.9111C25.1257 57.6548 26.1095 56.6698 26.1095 55.4564C26.1095 54.243 25.1245 53.258 23.9111 53.258H21.7213L25.4664 49.5129C26.3243 48.6562 26.3243 47.2626 25.4664 46.4047Z" fill="black"/>
</g>
</svg>

<svg xmlns="http://www.w3.org/2000/svg" width="79" height="80" fill="none"><g fill="#000"><path d="M66.985 14.799h-54.97a5.504 5.504 0 0 0-5.496 5.496v39.578a5.504 5.504 0 0 0 5.496 5.497h54.968a5.503 5.503 0 0 0 5.497-5.497V20.295a5.5 5.5 0 0 0-5.495-5.496Zm1.098 45.073a1.1 1.1 0 0 1-1.1 1.1H12.015c-.606 0-1.1-.494-1.1-1.1V20.295a1.1 1.1 0 0 1 1.1-1.1h54.968c.606 0 1.1.494 1.1 1.1v39.577Z"/><path d="M62.587 22.476h-7.498a2.199 2.199 0 0 0 0 4.397h2.19l-3.745 3.745a2.198 2.198 0 1 0 3.108 3.11l3.745-3.745v2.19a2.199 2.199 0 0 0 4.397 0v-7.498a2.196 2.196 0 0 0-2.198-2.199ZM25.466 46.405c-.859-.86-2.25-.86-3.109 0l-3.745 3.745v-2.191a2.199 2.199 0 0 0-4.397 0v7.497c0 1.215.985 2.199 2.198 2.199h7.498a2.199 2.199 0 0 0 0-4.397h-2.19l3.745-3.745a2.199 2.199 0 0 0 0-3.108Z"/></g></svg>
